X: 106
T:Take My Hand
R:Waltz
M:3/4
L:1/4
Q:1/4=110
K:G
D|:EGG|G2 D|EGG|G2 D|EGG|GAB|Bed|B2 A/G/|
A A e/d/|B B d/B/|A>B A/G/|E2 D|E G G|G2 D|E G G|
G2 D|E G G|G A B|A>B A/B/|G2 D|E G G|G A B|B e d|
B2 A/G/|A A e/d/|B B d/B/|A>B d|e2 d/B/|dde|
g2 e/d/|eeg|a2 g/e/|g g d/e/|g g d/e/|g g a|b3|
b b b|b2 a/g/|a>g a/b/|a2 g/f/|e e g/e/|d d g/d/|
B2  d/B/|A>c B/A/|G>B d|=f2 e/d/|e e g|e2 d/B/|
d d g/d/|B B d/B/|A>c B/A/|[1 G2 D:|[2 EGG|G2D|EGG|G3||
